X: 12
T:Castell Aberystwyth
M:4/4
L:1/8
Q:180
C:John Parry (Bardd Alaw)
R:Welsh hornpipe
A:Wales
Z:brian_martin12345@yahoo.com
K:F
cB|AFAd cAGF|Bcde fdcB|AcAF cAGF|EGFD CEGB|AFAd cAGF|
Bcde fdcB|AcFA GBEG|FAGEF2:||
c_e|dcBd Bdf2|cBAc Acf2|BGAF GEFA|Gc=Bdc2_B|AFAc fedc|
Bdc_e dcBA|GABG ABcd|cBAGF2:||
